X: 27825
T: Mossy Banks, The
R: reel
M: 4/4
K: Gmajor
gedB ~G3A|BAGB AE~E2|DEGA Bddg|edgd egga|
gedB ~G3A|BAGB AE~E2|DEGA Bdge|dBAG EGG2:|:
G3B ABGE|DGBG AGED|ABBd edgd|BAGA BAA2|
G3B ABGE|DGBG AGED|1 AG B/c/d gedB|ABGA BGGF:|2 AG B/c/d ~g3b|a2ga bggf||
g2dg egde|g2bg agef|g2dg egdB|ABGA BGG2|
g2dg egde|g2bg agef|g2af gfed|e/f/g fa ~g3g:|

